symbols/web/panorama/materialsymbolsoutlined/panorama_wght700grad200fill1_20px.svg

<svg xmlns="http://www.w3.org/2000/svg" height="20" width="20"><path d="M4.438 13.354h11.124l-3.687-4.958-2.479 3.312-1.875-2.479Zm-.771 4.208q-1.229 0-2.073-.843-.844-.844-.844-2.073V5.354q0-1.229.844-2.073.844-.843 2.073-.843h12.666q1.229 0 2.073.843.844.844.844 2.073v9.292q0 1.229-.844 2.073-.844.843-2.073.843Z"/></svg>

<svg xmlns="http://www.w3.org/2000/svg" height="20" width="20"><path d="M4.438 13.354H15.562L11.875 8.396L9.396 11.708L7.521 9.229ZM3.667 17.562Q2.438 17.562 1.594 16.719Q0.75 15.875 0.75 14.646V5.354Q0.75 4.125 1.594 3.281Q2.438 2.438 3.667 2.438H16.333Q17.562 2.438 18.406 3.281Q19.25 4.125 19.25 5.354V14.646Q19.25 15.875 18.406 16.719Q17.562 17.562 16.333 17.562Z"/></svg>
